X: 21661
T: Kilmore Fancy
R: hornpipe
M: 4/4
K: Dmajor
(3ABc|:dfed B2dB|AFDF EDB,A,|DEFD EDB,D|E2 ED E2 FA|
dfed B2dB|AFDF EDB,A,|DEFD EDB,E|1 (3DFD CE D2(3ABc:|2 (3DFDCE D2ag||
|:(3faf (3efe dBA2|(3Bcd ed e3f|gbaf gfed|c2A2 A2AG|
FAdc dfed|(3Bcd ef gbag|(3faf df (3ege ce|1 dfec d2ag:|2 dfec d2||

